packages/core/src/svgs/uno.svg

<svg width="24" height="24" viewBox="0 0 24 24" fill="none" xmlns="http://www.w3.org/2000/svg">
<g clip-path="url(#clip0_31_20225)">
<path d="M0 0H24V24H0V0Z" fill="url(#paint0_linear_31_20225)"/>
<path d="M6.85711 7.28564H5.14282V13.2856C5.14282 14.195 5.50405 15.067 6.14703 15.71C6.79001 16.353 7.66208 16.7142 8.57139 16.7142H8.99996C9.90928 16.7142 10.7813 16.353 11.4243 15.71C12.0673 15.067 12.4285 14.195 12.4285 13.2856V7.28564H10.7143V13.0714C10.7143 13.5828 10.5111 14.0734 10.1494 14.4351C9.78771 14.7967 9.29717 14.9999 8.78568 14.9999C8.27419 14.9999 7.78365 14.7967 7.42197 14.4351C7.0603 14.0734 6.85711 13.5828 6.85711 13.0714V7.28564ZM13.2857 9.85707H15V16.2856H13.2857V9.85707Z" fill="white"/>
<path d="M16.9287 9.64307C16.3035 9.64307 15.704 9.89141 15.2619 10.3335C14.8199 10.7755 14.5715 11.3751 14.5715 12.0002V16.2859H15.0001V12.4288C15.0001 12.0878 15.1356 11.7608 15.3767 11.5196C15.6178 11.2785 15.9448 11.1431 16.2858 11.1431C16.6268 11.1431 16.9538 11.2785 17.195 11.5196C17.4361 11.7608 17.5715 12.0878 17.5715 12.4288V16.2859H19.2858V12.0002C19.2858 11.3751 19.0375 10.7755 18.5954 10.3335C18.1534 9.89141 17.5538 9.64307 16.9287 9.64307Z" fill="white"/>
</g>
<defs>
<linearGradient id="paint0_linear_31_20225" x1="12" y1="0" x2="12" y2="24" gradientUnits="userSpaceOnUse">
<stop stop-color="#5079DD"/>
<stop offset="1" stop-color="#3E3BAC"/>
</linearGradient>
<clipPath id="clip0_31_20225">
<rect width="24" height="24" fill="white"/>
</clipPath>
</defs>
</svg>

<svg xmlns="http://www.w3.org/2000/svg" width="24" height="24" fill="none" viewBox="0 0 24 24"><g clip-path="url(#a)"><path fill="url(#b)" d="M0 0h24v24H0z"/><path fill="#fff" d="M6.857 7.286H5.143v6a3.43 3.43 0 0 0 3.428 3.428H9a3.43 3.43 0 0 0 3.428-3.428v-6h-1.714v5.785a1.929 1.929 0 0 1-3.857 0zm6.429 2.571H15v6.429h-1.714z"/><path fill="#fff" d="M16.929 9.643A2.357 2.357 0 0 0 14.572 12v4.286H15v-3.857a1.286 1.286 0 0 1 2.572 0v3.857h1.714V12a2.357 2.357 0 0 0-2.357-2.357"/></g><defs><linearGradient id="b" x1="12" x2="12" y1="0" y2="24" gradientUnits="userSpaceOnUse"><stop stop-color="#5079DD"/><stop offset="1" stop-color="#3E3BAC"/></linearGradient><clipPath id="a"><path fill="#fff" d="M0 0h24v24H0z"/></clipPath></defs></svg>
